!! Stephen C. Foster, "My Old Kentucky Home, Good-Night"
!! from 'Stephen Foster Song Book' Dover Publications (New York) pp. 68-71
!! NOTE:  Leading and trailing bars of rest have been omitted.
**kern
*M4/4
*MM84
*G:
8b
=1
4b
4b
4g
8.a
16b
=2
8.cc
16b
8cc
8ee
4dd
8r
8cc
=3
8b
8a
8r
8g
8g
8f#
8r
8g
=4
2.a
8r
8a
=5
4b
4b
4g
8.a
16b
=6
8cc
8b
8.cc
16ee
4dd
8.g
16a
=7
4b
4b
8a
8g
8.b
16a
=8
2.g
8r
8b
=9
4b
4b
4g
8a
8b
=10
8cc
8b
8cc
8ee
4dd
8r
8cc
=11
8b
8a
8r
8g
8g
8f#
8r
8g
=12
4a
4r
4r
4d
=13
4b
4b
4g
8.a
16b
=14
8cc
8b
8.cc
16ee
4dd;
8.g
16a
=15
8b
8g
8cc
8b
4.a
8f#
=16
4g
4r
4r
4r
!! Chorus:
=17
4.dd
8b
4.cc
8ee
=18
8dd
4.b
4r
4a
=19
4.g
8a
4.g
8e
=20
2g
4r
8g
8a
=21
4b
4b
4g
8a
8b
=22
8.cc
16b
8cc
8ee
4dd;
8.g
16a
=23
8.b
16g
8cc
8b
4a
8.a
16f#
=24
2.g
8r
8b
=25
4b
4b
4g
8.a
16b
=26
8.cc
16b
8cc
8ee
4dd
8r
8cc
=27
8b
8a
8r
8g
8g
8f#
8r
8g
=28
2.a
8r
8a
=29
4b
4b
4g
8.a
16b
=30
8cc
8b
8.cc
16ee
4dd
8.g
16a
=31
4b
4b
8a
8g
8.b
16a
=32
2.g
8r
8b
=33
4b
4b
4g
8a
8b
=34
8cc
8b
8cc
8ee
4dd
8r
8cc
=35
8b
8a
8r
8g
8g
8f#
8r
8g
=36
4a
4r
4r
4d
=37
4b
4b
4g
8.a
16b
=38
8cc
8b
8.cc
16ee
4dd;
8.g
16a
=39
8b
8g
8cc
8b
4.a
8f#
=40
4g
4r
4r
4r
!! Chorus:
=41
4.dd
8b
4.cc
8ee
=42
8dd
4.b
4r
4a
=43
4.g
8a
4.g
8e
=44
2g
4r
8g
8a
=45
4b
4b
4g
8a
8b
=46
8.cc
16b
8cc
8ee
4dd;
8.g
16a
=47
8.b
16g
8cc
8b
4a
8.a
16f#
=48
2.g
4r
==
*-
